dist/img/icons_map/wabco.svg

<svg width="49" height="49" viewBox="0 0 49 49" fill="none" xmlns="http://www.w3.org/2000/svg">
<rect x="0.700439" y="0.0931396" width="48" height="48" rx="24" fill="white"/>
<path d="M34.4935 18L32.3793 27.3643L29.7768 18H21.2237L18.6075 27.3643L16.5065 18H10L13.7822 31H23.8529L25.5202 22.7363L27.1469 31H37.2325L41 18H34.4935Z" fill="#8F9190"/>
</svg>

<svg width="49" height="49" viewBox="0 0 49 49" fill="none" xmlns="http://www.w3.org/2000/svg"><rect x=".7" y=".093" width="48" height="48" rx="24" fill="#fff"/><path d="M34.493 18l-2.114 9.364L29.777 18h-8.553l-2.616 9.364L16.506 18H10l3.782 13h10.07l1.668-8.264L27.147 31h10.086L41 18h-6.507z" fill="#8F9190"/></svg>
